X:1
T:Fisherman's Harvest
T:Ed. Reavy's
D:Deanta No 1
R:Reel
M:C|
K:D
D2FA d3A|BAGB AF~F2|GEED EFGA|(3Bcd ed cAAg|
fd~d2 edce|d2cd BAGF|EFGA Bded|cAGE EDDE:|
fd~d2 AF~F2|DFAd f2ef|ge~e2 gfec|dfed cAGE|
DF~F2 Adcd|Bg~g2 edcB|Adfa gfed|cAGE EDD2:|
